X: 10734
T: BORTHWICK BRAES
O: Scottish air.
Q: "Slow."
%R: air, strathspey
B: W. Hamilton "Universal Tune-Book" Vol. 1 Glasgow 1844 p.73 #4
S: http://imslp.org/wiki/Hamilton's_Universal_Tune-Book_(Various)
Z: 2016 John Chambers <jc:trillian.mit.edu>
M: C
L: 1/16
K: F
%%slurgraces yes
%%graceslurs yes
% - - - - - - - - - - - - - - - - - - - - - - - - -
|:\
C3F TG4 {FG}A2F2c2F2 | C3F A2GF G2d2d2{e}f2 |\
C3F TG4 {FG}A3F f3d | c2A2F2C2 D3F F4 :|\
c2f2 Tg2fg a2f2d3f | c3f a2gf d2g2g2a2 |
c3f Tg2fg a2f2d3f | c2A2F2C2 D3F F4 |\
c3f Tg2fg a2f2d3f | c3f a2gf d2g2g3a |\
b3ag3f c3A f3d | cAGF D3C D2F2 F4 |]
% - - - - - - - - - - - - - - - - - - - - - - - - -

%%sep 1 1 500
%%sep 1 1 500

